assets/img/braze_icons/wallet-04.svg

<svg fill="none" height="24" viewBox="0 0 24 24" width="24" xmlns="http://www.w3.org/2000/svg"><path clip-rule="evenodd" d="m16.8385 3h-11.67704c-.52714-.00002-.98192-.00003-1.35648.03057-.39535.0323-.78857.10362-1.16695.29641-.56448.28762-1.02343.74656-1.31105 1.31105-.19279.37838-.26411.7716-.29641 1.16694-.030601.37456-.030586.82931-.03057 1.35644v9.67709c-.000016.5272-.000031.982.03057 1.3565.0323.3954.10362.7886.29641 1.167.28762.5645.74656 1.0234 1.31105 1.311.37838.1928.7716.2641 1.16694.2964.37457.0306.82933.0306 1.35647.0306h11.67716c.5271 0 .9819 0 1.3564-.0306.3954-.0323.7886-.1036 1.167-.2964.5645-.2876 1.0234-.7465 1.311-1.311.1928-.3784.2641-.7716.2964-1.167.0306-.3745.0306-.8293.0306-1.3564v-1.51c.9878-.3489 1.7339-1.1954 1.9424-2.2432.0582-.2929.058-.6207.0577-1.0014l-.0001-.0839.0001-.0839c.0003-.3807.0005-.7085-.0577-1.0014-.2085-1.04786-.9546-1.89434-1.9424-2.24325v-1.51011c0-.52714 0-.9819-.0306-1.35646-.0323-.39535-.1036-.78857-.2964-1.16695-.2876-.56448-.7465-1.02343-1.311-1.31105-.3784-.19279-.7716-.26411-1.167-.29641-.3745-.0306-.8293-.03058-1.3565-.03057zm-.0336 7.5193c.0723-.0144.1825-.0192.6951-.0192h2c.5126 0 .6229.0048.6951.0192.3967.0789.7068.389.7857.7857.0144.0722.0192.1825.0192.6951s-.0048.6228-.0192.6951c-.0789.3967-.389.7068-.7857.7857-.0722.0143-.1825.0192-.6951.0192h-2c-.5126 0-.6228-.0049-.6951-.0192-.3967-.0789-.7068-.389-.7857-.7857-.0143-.0723-.0192-.1825-.0192-.6951s.0049-.6229.0192-.6951c.0789-.3967.389-.7068.7857-.7857z" fill="#801ed7" fill-rule="evenodd"/></svg>

<svg width="24" height="24" viewBox="0 0 24 24" fill="none" xmlns="http://www.w3.org/2000/svg">
<path fill-rule="evenodd" clip-rule="evenodd" d="M16.8385 3L5.16146 3C4.63432 2.99998 4.17954 2.99997 3.80498 3.03057C3.40963 3.06287 3.01641 3.13419 2.63803 3.32698C2.07355 3.6146 1.6146 4.07354 1.32698 4.63803C1.13419 5.01641 1.06287 5.40963 1.03057 5.80497C0.999969 6.17953 0.999984 6.63428 1 7.16141V16.8385C0.999984 17.3657 0.999969 17.8205 1.03057 18.195C1.06287 18.5904 1.13419 18.9836 1.32698 19.362C1.6146 19.9265 2.07354 20.3854 2.63803 20.673C3.01641 20.8658 3.40963 20.9371 3.80497 20.9694C4.17954 21 4.6343 21 5.16144 21L16.8386 21C17.3657 21 17.8205 21 18.195 20.9694C18.5904 20.9371 18.9836 20.8658 19.362 20.673C19.9265 20.3854 20.3854 19.9265 20.673 19.362C20.8658 18.9836 20.9371 18.5904 20.9694 18.195C21 17.8205 21 17.3657 21 16.8386V15.3286C21.9878 14.9797 22.7339 14.1332 22.9424 13.0854C23.0006 12.7925 23.0004 12.4647 23.0001 12.084L23 12.0001L23.0001 11.9162C23.0004 11.5355 23.0006 11.2077 22.9424 10.9148C22.7339 9.86694 21.9878 9.02046 21 8.67155V7.16144C21 6.6343 21 6.17954 20.9694 5.80498C20.9371 5.40963 20.8658 5.01641 20.673 4.63803C20.3854 4.07355 19.9265 3.6146 19.362 3.32698C18.9836 3.13419 18.5904 3.06287 18.195 3.03057C17.8205 2.99997 17.3657 2.99999 16.8385 3ZM16.8049 10.5193C16.8772 10.5049 16.9874 10.5001 17.5 10.5001L19.5 10.5001C20.0126 10.5001 20.1229 10.5049 20.1951 10.5193C20.5918 10.5982 20.9019 10.9083 20.9808 11.305C20.9952 11.3772 21 11.4875 21 12.0001C21 12.5127 20.9952 12.6229 20.9808 12.6952C20.9019 13.0919 20.5918 13.402 20.1951 13.4809C20.1229 13.4952 20.0126 13.5001 19.5 13.5001H17.5C16.9874 13.5001 16.8772 13.4952 16.8049 13.4809C16.4082 13.402 16.0981 13.0919 16.0192 12.6952C16.0049 12.6229 16 12.5127 16 12.0001C16 11.4875 16.0049 11.3772 16.0192 11.305C16.0981 10.9083 16.4082 10.5982 16.8049 10.5193Z" fill="#801ED7"/>
</svg>
